assets/logo.svg

<svg width="216" height="46" viewBox="0 0 216 46" fill="none" xmlns="http://www.w3.org/2000/svg">
<g clip-path="url(#clip0_1954_681)">
<path d="M15.66 33L14.076 26.952H7.2L5.652 33H0.18L6.984 7.872H14.616L21.42 33H15.66ZM10.8 13.092H10.512L8.064 22.596H13.248L10.8 13.092ZM32.1699 33.432C30.1059 33.432 28.3059 33.12 26.7699 32.496C25.2579 31.872 24.1179 31.02 23.3499 29.94L26.3379 27.168C27.0579 27.96 27.8979 28.584 28.8579 29.04C29.8419 29.472 30.9579 29.688 32.2059 29.688C33.2619 29.688 34.0899 29.532 34.6899 29.22C35.2899 28.884 35.5899 28.38 35.5899 27.708C35.5899 27.18 35.3859 26.82 34.9779 26.628C34.5699 26.412 34.0059 26.244 33.2859 26.124L30.2979 25.656C29.4579 25.536 28.6779 25.356 27.9579 25.116C27.2379 24.852 26.6139 24.504 26.0859 24.072C25.5579 23.64 25.1379 23.112 24.8259 22.488C24.5139 21.864 24.3579 21.108 24.3579 20.22C24.3579 18.276 25.1019 16.752 26.5899 15.648C28.0779 14.544 30.1659 13.992 32.8539 13.992C34.6779 13.992 36.2259 14.244 37.4979 14.748C38.7939 15.228 39.8259 15.924 40.5939 16.836L37.9299 19.86C37.3779 19.26 36.6699 18.756 35.8059 18.348C34.9419 17.94 33.8979 17.736 32.6739 17.736C30.6099 17.736 29.5779 18.36 29.5779 19.608C29.5779 20.16 29.7819 20.544 30.1899 20.76C30.5979 20.952 31.1619 21.108 31.8819 21.228L34.8339 21.696C35.6739 21.816 36.4539 22.008 37.1739 22.272C37.8939 22.512 38.5179 22.848 39.0459 23.28C39.5979 23.712 40.0299 24.24 40.3419 24.864C40.6539 25.488 40.8099 26.244 40.8099 27.132C40.8099 29.076 40.0539 30.612 38.5419 31.74C37.0539 32.868 34.9299 33.432 32.1699 33.432ZM55.4119 33C53.4919 33 52.0639 32.496 51.1279 31.488C50.1919 30.48 49.7239 29.196 49.7239 27.636V18.564H44.6839V14.424H47.9599C48.7519 14.424 49.3159 14.268 49.6519 13.956C49.9879 13.644 50.1559 13.068 50.1559 12.228V7.872H55.0519V14.424H62.2879V18.564H55.0519V28.86H62.2879V33H55.4119ZM67.4218 28.86H71.7058V18.564H67.4218V14.424H77.0338V19.68H77.2858C77.4538 19.008 77.6818 18.36 77.9698 17.736C78.2818 17.088 78.6658 16.524 79.1218 16.044C79.6018 15.54 80.1778 15.144 80.8498 14.856C81.5218 14.568 82.3138 14.424 83.2258 14.424H84.9898V19.32H81.0298C79.7098 19.32 78.7138 19.716 78.0418 20.508C77.3698 21.276 77.0338 22.224 77.0338 23.352V28.86H83.1538V33H67.4218V28.86ZM97.1438 33.432C95.7038 33.432 94.4078 33.216 93.2558 32.784C92.1038 32.328 91.1198 31.68 90.3038 30.84C89.5118 30 88.8998 28.98 88.4678 27.78C88.0358 26.58 87.8198 25.224 87.8198 23.712C87.8198 22.2 88.0358 20.844 88.4678 19.644C88.8998 18.444 89.5118 17.424 90.3038 16.584C91.1198 15.744 92.1038 15.108 93.2558 14.676C94.4078 14.22 95.7038 13.992 97.1438 13.992C98.5838 13.992 99.8798 14.22 101.032 14.676C102.184 15.108 103.156 15.744 103.948 16.584C104.764 17.424 105.388 18.444 105.82 19.644C106.252 20.844 106.468 22.2 106.468 23.712C106.468 25.224 106.252 26.58 105.82 27.78C105.388 28.98 104.764 30 103.948 30.84C103.156 31.68 102.184 32.328 101.032 32.784C99.8798 33.216 98.5838 33.432 97.1438 33.432ZM97.1438 29.472C98.3438 29.472 99.2798 29.1 99.9518 28.356C100.624 27.612 100.96 26.556 100.96 25.188V22.236C100.96 20.868 100.624 19.812 99.9518 19.068C99.2798 18.324 98.3438 17.952 97.1438 17.952C95.9438 17.952 95.0078 18.324 94.3358 19.068C93.6638 19.812 93.3278 20.868 93.3278 22.236V25.188C93.3278 26.556 93.6638 27.612 94.3358 28.356C95.0078 29.1 95.9438 29.472 97.1438 29.472ZM110.666 33V7.872H120.386C121.61 7.872 122.702 8.064 123.662 8.448C124.622 8.808 125.426 9.336 126.074 10.032C126.746 10.728 127.25 11.568 127.586 12.552C127.922 13.536 128.09 14.64 128.09 15.864C128.09 17.088 127.922 18.192 127.586 19.176C127.25 20.16 126.746 21 126.074 21.696C125.426 22.392 124.622 22.932 123.662 23.316C122.702 23.676 121.61 23.856 120.386 23.856H116.102V33H110.666ZM116.102 19.5H119.018C120.29 19.5 121.166 19.26 121.646 18.78C122.15 18.3 122.402 17.508 122.402 16.404V15.324C122.402 14.22 122.15 13.428 121.646 12.948C121.166 12.468 120.29 12.228 119.018 12.228H116.102V19.5ZM147.048 33C145.944 33 145.056 32.724 144.384 32.172C143.712 31.596 143.316 30.78 143.196 29.724H143.016C142.68 30.948 142.008 31.872 141 32.496C140.016 33.12 138.804 33.432 137.364 33.432C135.564 33.432 134.112 32.952 133.008 31.992C131.928 31.008 131.388 29.64 131.388 27.888C131.388 25.944 132.096 24.504 133.512 23.568C134.928 22.632 137.004 22.164 139.74 22.164H142.728V21.228C142.728 20.124 142.464 19.296 141.936 18.744C141.432 18.168 140.568 17.88 139.344 17.88C138.216 17.88 137.304 18.096 136.608 18.528C135.912 18.96 135.312 19.524 134.808 20.22L131.892 17.628C132.516 16.572 133.488 15.708 134.808 15.036C136.152 14.34 137.868 13.992 139.956 13.992C142.5 13.992 144.48 14.58 145.896 15.756C147.336 16.908 148.056 18.66 148.056 21.012V29.148H150.108V33H147.048ZM139.38 29.94C140.316 29.94 141.108 29.712 141.756 29.256C142.404 28.8 142.728 28.14 142.728 27.276V25.044H139.884C137.7 25.044 136.608 25.776 136.608 27.24V27.96C136.608 28.608 136.86 29.1 137.364 29.436C137.868 29.772 138.54 29.94 139.38 29.94ZM153.226 14.424H158.554V17.808H158.806C159.262 16.704 159.922 15.792 160.786 15.072C161.65 14.352 162.826 13.992 164.314 13.992C165.346 13.992 166.282 14.184 167.122 14.568C167.986 14.952 168.718 15.54 169.318 16.332C169.942 17.124 170.422 18.132 170.758 19.356C171.118 20.58 171.298 22.032 171.298 23.712C171.298 25.392 171.118 26.844 170.758 28.068C170.422 29.292 169.942 30.3 169.318 31.092C168.718 31.884 167.986 32.472 167.122 32.856C166.282 33.24 165.346 33.432 164.314 33.432C162.826 33.432 161.65 33.084 160.786 32.388C159.922 31.668 159.262 30.744 158.806 29.616H158.554V40.2H153.226V14.424ZM162.01 29.292C163.21 29.292 164.134 28.932 164.782 28.212C165.43 27.468 165.754 26.448 165.754 25.152V22.272C165.754 20.976 165.43 19.968 164.782 19.248C164.134 18.504 163.21 18.132 162.01 18.132C161.074 18.132 160.258 18.36 159.562 18.816C158.89 19.272 158.554 19.992 158.554 20.976V26.448C158.554 27.432 158.89 28.152 159.562 28.608C160.258 29.064 161.074 29.292 162.01 29.292ZM183.992 33.432C180.872 33.432 178.508 32.568 176.9 30.84C175.292 29.112 174.488 26.76 174.488 23.784C174.488 22.272 174.692 20.916 175.1 19.716C175.532 18.492 176.132 17.46 176.9 16.62C177.692 15.756 178.64 15.108 179.744 14.676C180.872 14.22 182.132 13.992 183.524 13.992C184.916 13.992 186.164 14.22 187.268 14.676C188.372 15.108 189.308 15.732 190.076 16.548C190.844 17.364 191.432 18.36 191.84 19.536C192.272 20.688 192.488 21.984 192.488 23.424V25.008H179.78V25.332C179.78 26.532 180.152 27.504 180.896 28.248C181.64 28.968 182.732 29.328 184.172 29.328C185.276 29.328 186.224 29.124 187.016 28.716C187.808 28.284 188.492 27.72 189.068 27.024L191.948 30.156C191.228 31.044 190.22 31.812 188.924 32.46C187.628 33.108 185.984 33.432 183.992 33.432ZM183.56 17.808C182.408 17.808 181.484 18.168 180.788 18.888C180.116 19.584 179.78 20.532 179.78 21.732V22.02H187.268V21.732C187.268 20.508 186.932 19.548 186.26 18.852C185.612 18.156 184.712 17.808 183.56 17.808ZM196.937 28.86H201.221V18.564H196.937V14.424H206.549V19.68H206.801C206.969 19.008 207.197 18.36 207.485 17.736C207.797 17.088 208.181 16.524 208.637 16.044C209.117 15.54 209.693 15.144 210.365 14.856C211.037 14.568 211.829 14.424 212.741 14.424H214.505V19.32H210.545C209.225 19.32 208.229 19.716 207.557 20.508C206.885 21.276 206.549 22.224 206.549 23.352V28.86H212.669V33H196.937V28.86Z" fill="#31A1A8"/>
</g>
<defs>
<clipPath id="clip0_1954_681">
<rect width="216" height="46" fill="white"/>
</clipPath>
</defs>
</svg>

<svg xmlns="http://www.w3.org/2000/svg" width="216" height="46" fill="none" viewBox="0 0 216 46"><g clip-path="url(#a)"><path fill="#31A1A8" d="m15.66 33-1.584-6.048H7.2L5.652 33H.18L6.984 7.872h7.632L21.42 33zM10.8 13.092h-.288l-2.448 9.504h5.184zm21.37 20.34c-2.064 0-3.864-.312-5.4-.936-1.512-.624-2.652-1.476-3.42-2.556l2.988-2.772a8.034 8.034 0 0 0 2.52 1.872c.984.432 2.1.648 3.348.648 1.056 0 1.884-.156 2.484-.468.6-.336.9-.84.9-1.512 0-.528-.204-.888-.612-1.08-.408-.216-.972-.384-1.692-.504l-2.988-.468c-.84-.12-1.62-.3-2.34-.54a6.414 6.414 0 0 1-1.872-1.044 4.786 4.786 0 0 1-1.26-1.584c-.312-.624-.468-1.38-.468-2.268 0-1.944.744-3.468 2.232-4.572 1.488-1.104 3.576-1.656 6.264-1.656 1.824 0 3.372.252 4.644.756 1.296.48 2.328 1.176 3.096 2.088L37.93 19.86c-.552-.6-1.26-1.104-2.124-1.512-.864-.408-1.908-.612-3.132-.612-2.064 0-3.096.624-3.096 1.872 0 .552.204.936.612 1.152.408.192.972.348 1.692.468l2.952.468c.84.12 1.62.312 2.34.576.72.24 1.344.576 1.872 1.008a4.6 4.6 0 0 1 1.296 1.584c.312.624.468 1.38.468 2.268 0 1.944-.756 3.48-2.268 4.608-1.488 1.128-3.612 1.692-6.372 1.692M55.412 33c-1.92 0-3.348-.504-4.284-1.512-.936-1.008-1.404-2.292-1.404-3.852v-9.072h-5.04v-4.14h3.276c.792 0 1.356-.156 1.692-.468.336-.312.504-.888.504-1.728V7.872h4.896v6.552h7.236v4.14h-7.236V28.86h7.236V33zm12.01-4.14h4.284V18.564h-4.284v-4.14h9.612v5.256h.252c.168-.672.396-1.32.684-1.944a6.576 6.576 0 0 1 1.152-1.692c.48-.504 1.056-.9 1.728-1.188.672-.288 1.464-.432 2.376-.432h1.764v4.896h-3.96c-1.32 0-2.316.396-2.988 1.188-.672.768-1.008 1.716-1.008 2.844v5.508h6.12V33H67.422zm29.722 4.572c-1.44 0-2.736-.216-3.888-.648a8.331 8.331 0 0 1-2.952-1.944c-.792-.84-1.404-1.86-1.836-3.06-.432-1.2-.648-2.556-.648-4.068 0-1.512.216-2.868.648-4.068.432-1.2 1.044-2.22 1.836-3.06a7.94 7.94 0 0 1 2.952-1.908c1.152-.456 2.448-.684 3.888-.684s2.736.228 3.888.684c1.152.432 2.124 1.068 2.916 1.908.816.84 1.44 1.86 1.872 3.06.432 1.2.648 2.556.648 4.068 0 1.512-.216 2.868-.648 4.068-.432 1.2-1.056 2.22-1.872 3.06-.792.84-1.764 1.488-2.916 1.944-1.152.432-2.448.648-3.888.648m0-3.96c1.2 0 2.136-.372 2.808-1.116.672-.744 1.008-1.8 1.008-3.168v-2.952c0-1.368-.336-2.424-1.008-3.168-.672-.744-1.608-1.116-2.808-1.116-1.2 0-2.136.372-2.808 1.116-.672.744-1.008 1.8-1.008 3.168v2.952c0 1.368.336 2.424 1.008 3.168.672.744 1.608 1.116 2.808 1.116M110.666 33V7.872h9.72c1.224 0 2.316.192 3.276.576.96.36 1.764.888 2.412 1.584.672.696 1.176 1.536 1.512 2.52.336.984.504 2.088.504 3.312 0 1.224-.168 2.328-.504 3.312-.336.984-.84 1.824-1.512 2.52-.648.696-1.452 1.236-2.412 1.62-.96.36-2.052.54-3.276.54h-4.284V33zm5.436-13.5h2.916c1.272 0 2.148-.24 2.628-.72.504-.48.756-1.272.756-2.376v-1.08c0-1.104-.252-1.896-.756-2.376-.48-.48-1.356-.72-2.628-.72h-2.916zM147.048 33c-1.104 0-1.992-.276-2.664-.828-.672-.576-1.068-1.392-1.188-2.448h-.18c-.336 1.224-1.008 2.148-2.016 2.772-.984.624-2.196.936-3.636.936-1.8 0-3.252-.48-4.356-1.44-1.08-.984-1.62-2.352-1.62-4.104 0-1.944.708-3.384 2.124-4.32 1.416-.936 3.492-1.404 6.228-1.404h2.988v-.936c0-1.104-.264-1.932-.792-2.484-.504-.576-1.368-.864-2.592-.864-1.128 0-2.04.216-2.736.648a6.341 6.341 0 0 0-1.8 1.692l-2.916-2.592c.624-1.056 1.596-1.92 2.916-2.592 1.344-.696 3.06-1.044 5.148-1.044 2.544 0 4.524.588 5.94 1.764 1.44 1.152 2.16 2.904 2.16 5.256v8.136h2.052V33zm-7.668-3.06c.936 0 1.728-.228 2.376-.684.648-.456.972-1.116.972-1.98v-2.232h-2.844c-2.184 0-3.276.732-3.276 2.196v.72c0 .648.252 1.14.756 1.476.504.336 1.176.504 2.016.504m13.846-15.516h5.328v3.384h.252c.456-1.104 1.116-2.016 1.98-2.736.864-.72 2.04-1.08 3.528-1.08 1.032 0 1.968.192 2.808.576a5.56 5.56 0 0 1 2.196 1.764c.624.792 1.104 1.8 1.44 3.024.36 1.224.54 2.676.54 4.356 0 1.68-.18 3.132-.54 4.356-.336 1.224-.816 2.232-1.44 3.024a5.56 5.56 0 0 1-2.196 1.764c-.84.384-1.776.576-2.808.576-1.488 0-2.664-.348-3.528-1.044-.864-.72-1.524-1.644-1.98-2.772h-.252V40.2h-5.328zm8.784 14.868c1.2 0 2.124-.36 2.772-1.08.648-.744.972-1.764.972-3.06v-2.88c0-1.296-.324-2.304-.972-3.024-.648-.744-1.572-1.116-2.772-1.116-.936 0-1.752.228-2.448.684-.672.456-1.008 1.176-1.008 2.16v5.472c0 .984.336 1.704 1.008 2.16.696.456 1.512.684 2.448.684m21.982 4.14c-3.12 0-5.484-.864-7.092-2.592-1.608-1.728-2.412-4.08-2.412-7.056 0-1.512.204-2.868.612-4.068.432-1.224 1.032-2.256 1.8-3.096a7.526 7.526 0 0 1 2.844-1.944c1.128-.456 2.388-.684 3.78-.684s2.64.228 3.744.684c1.104.432 2.04 1.056 2.808 1.872.768.816 1.356 1.812 1.764 2.988.432 1.152.648 2.448.648 3.888v1.584H179.78v.324c0 1.2.372 2.172 1.116 2.916.744.72 1.836 1.08 3.276 1.08 1.104 0 2.052-.204 2.844-.612a6.976 6.976 0 0 0 2.052-1.692l2.88 3.132c-.72.888-1.728 1.656-3.024 2.304-1.296.648-2.94.972-4.932.972m-.432-15.624c-1.152 0-2.076.36-2.772 1.08-.672.696-1.008 1.644-1.008 2.844v.288h7.488v-.288c0-1.224-.336-2.184-1.008-2.88-.648-.696-1.548-1.044-2.7-1.044m13.377 11.052h4.284V18.564h-4.284v-4.14h9.612v5.256h.252c.168-.672.396-1.32.684-1.944a6.576 6.576 0 0 1 1.152-1.692c.48-.504 1.056-.9 1.728-1.188.672-.288 1.464-.432 2.376-.432h1.764v4.896h-3.96c-1.32 0-2.316.396-2.988 1.188-.672.768-1.008 1.716-1.008 2.844v5.508h6.12V33h-15.732z"/></g><defs><clipPath id="a"><path fill="#fff" d="M0 0h216v46H0z"/></clipPath></defs></svg>
